src/icons/blockchains/dark/avax.svg

<svg width="24" height="24" viewBox="0 0 24 24" fill="none" xmlns="http://www.w3.org/2000/svg">
  <rect width="24" height="24" rx="12" fill="#080530" />
  <mask
    id="mask0_1131_18495"
    style="mask-type: alpha"
    maskUnits="userSpaceOnUse"
    x="4"
    y="4"
    width="16"
    height="16"
  >
    <rect x="4" y="4" width="16" height="16" fill="#D9D9D9" />
  </mask>
  <g mask="url(#mask0_1131_18495)">
    <path
      fill-rule="evenodd"
      clip-rule="evenodd"
      d="M19.4682 17.4427C19.4579 17.6459 19.3511 17.8336 19.1789 17.9455C19.0205 18.0506 18.7536 18.0506 18.2232 18.0506H14.6258C14.0954 18.0506 13.8285 18.0506 13.6735 17.949C13.5013 17.837 13.3962 17.651 13.3842 17.4461C13.3756 17.2601 13.5064 17.0328 13.7682 16.5799L13.7751 16.5696L15.5695 13.4871C15.833 13.0325 15.9673 12.8069 16.1326 12.7208C16.3134 12.6295 16.527 12.6295 16.7077 12.7208C16.8713 12.8051 16.9988 13.0204 17.2519 13.4492L17.2726 13.4836L19.0739 16.5661C19.0825 16.5817 19.0911 16.5971 19.0997 16.6109C19.3494 17.0414 19.4769 17.2618 19.4682 17.4427Z"
      stroke="white"
      stroke-width="1.06224"
      stroke-miterlimit="10"
    />
    <path
      fill-rule="evenodd"
      clip-rule="evenodd"
      d="M14.6007 9.78432C14.537 10.0512 14.3941 10.3061 14.1048 10.8107L10.8501 16.5658L10.8415 16.5813C10.5556 17.0824 10.4092 17.3373 10.2078 17.5284C9.98905 17.7385 9.72557 17.8901 9.43627 17.9762C9.17279 18.0485 8.8766 18.0485 8.28593 18.0485H5.77689C5.24994 18.0485 4.9899 18.0485 4.82975 17.9469C4.65754 17.835 4.5525 17.6507 4.54044 17.4475C4.53183 17.2598 4.66099 17.0308 4.92102 16.5744L11.1187 5.65136C11.3822 5.18813 11.5165 4.95565 11.6853 4.86955C11.8661 4.77656 12.0831 4.77656 12.2639 4.86955C12.4327 4.95565 12.5653 5.18641 12.8288 5.65136L14.103 7.87627L14.11 7.88832C14.3941 8.386 14.5388 8.63742 14.6024 8.90262C14.6713 9.1902 14.6713 9.49501 14.6007 9.78432Z"
      stroke="white"
      stroke-width="1.06224"
      stroke-miterlimit="10"
    />
  </g>
</svg>

<svg
  xmlns="http://www.w3.org/2000/svg"
  width="24"
  height="24"
  fill="none"
  xmlns:v="https://vecta.io/nano"
>
  <rect width="24" height="24" rx="12" fill="#080530" />
  <mask id="A" maskUnits="userSpaceOnUse" x="4" y="4" width="16" height="16" mask-type="alpha">
    <path fill="#d9d9d9" d="M4 4h16v16H4z" />
  </mask>
  <g mask="url(#A)">
    <path
      d="M19.468 17.443a.64.64 0 0 1-.289.503c-.158.105-.425.105-.956.105h-3.597c-.53 0-.797 0-.952-.102a.64.64 0 0 1-.289-.503c-.009-.186.122-.413.384-.866l.007-.01 1.794-3.083c.264-.455.398-.68.563-.766a.64.64 0 0 1 .575 0c.164.084.291.3.544.728l.021.034 1.801 3.082.026.045c.25.43.377.651.369.832zm-4.867-7.659c-.064.267-.207.522-.496 1.026l-3.255 5.755-.009.015c-.286.501-.432.756-.634.947-.219.21-.482.362-.772.448-.263.072-.56.072-1.15.072H5.777c-.527 0-.787 0-.947-.102-.172-.112-.277-.296-.289-.499-.009-.188.121-.417.381-.873L11.12 5.65c.263-.463.398-.696.567-.782.181-.093.398-.093.579 0 .169.086.301.317.565.782l1.274 2.225.007.012c.284.498.429.749.492 1.014a1.88 1.88 0 0 1-.002.882z"
      stroke="#fff"
      stroke-width="1.062"
      stroke-miterlimit="10"
    />
  </g>
</svg>
